images/50936403.svg

<?xml version="1.0" encoding="UTF-8"?>
<svg xmlns="http://www.w3.org/2000/svg" xmlns:xlink="http://www.w3.org/1999/xlink" width="300pt" height="300pt" viewBox="0 0 300 300" version="1.1">
<defs>
<g>
<symbol overflow="visible" id="glyph0-0">
<path style="stroke:none;" d="M 0.453125 1.59375 L 0.453125 -6.34375 L 4.953125 -6.34375 L 4.953125 1.59375 Z M 0.953125 1.09375 L 4.453125 1.09375 L 4.453125 -5.84375 L 0.953125 -5.84375 Z M 0.953125 1.09375 "/>
</symbol>
<symbol overflow="visible" id="glyph0-1">
<path style="stroke:none;" d="M 3.546875 -5.953125 C 2.898438 -5.953125 2.382812 -5.710938 2 -5.234375 C 1.625 -4.753906 1.4375 -4.101562 1.4375 -3.28125 C 1.4375 -2.445312 1.625 -1.789062 2 -1.3125 C 2.382812 -0.832031 2.898438 -0.59375 3.546875 -0.59375 C 4.191406 -0.59375 4.703125 -0.832031 5.078125 -1.3125 C 5.453125 -1.789062 5.640625 -2.445312 5.640625 -3.28125 C 5.640625 -4.101562 5.453125 -4.753906 5.078125 -5.234375 C 4.703125 -5.710938 4.191406 -5.953125 3.546875 -5.953125 Z M 3.546875 -6.6875 C 4.460938 -6.6875 5.195312 -6.375 5.75 -5.75 C 6.300781 -5.132812 6.578125 -4.3125 6.578125 -3.28125 C 6.578125 -2.238281 6.300781 -1.410156 5.75 -0.796875 C 5.195312 -0.179688 4.460938 0.125 3.546875 0.125 C 2.617188 0.125 1.878906 -0.179688 1.328125 -0.796875 C 0.773438 -1.410156 0.5 -2.238281 0.5 -3.28125 C 0.5 -4.3125 0.773438 -5.132812 1.328125 -5.75 C 1.878906 -6.375 2.617188 -6.6875 3.546875 -6.6875 Z M 3.546875 -6.6875 "/>
</symbol>
<symbol overflow="visible" id="glyph0-2">
<path style="stroke:none;" d="M 0.890625 -6.5625 L 2.078125 -6.5625 L 4.984375 -1.078125 L 4.984375 -6.5625 L 5.84375 -6.5625 L 5.84375 0 L 4.65625 0 L 1.75 -5.484375 L 1.75 0 L 0.890625 0 Z M 0.890625 -6.5625 "/>
</symbol>
<symbol overflow="visible" id="glyph0-3">
<path style="stroke:none;" d="M 0.890625 -6.5625 L 1.765625 -6.5625 L 1.765625 -3.875 L 5 -3.875 L 5 -6.5625 L 5.890625 -6.5625 L 5.890625 0 L 5 0 L 5 -3.125 L 1.765625 -3.125 L 1.765625 0 L 0.890625 0 Z M 0.890625 -6.5625 "/>
</symbol>
<symbol overflow="visible" id="glyph1-0">
<path style="stroke:none;" d="M 0.40625 1.421875 L 0.40625 -5.640625 L 4.40625 -5.640625 L 4.40625 1.421875 Z M 0.84375 0.96875 L 3.953125 0.96875 L 3.953125 -5.1875 L 0.84375 -5.1875 Z M 0.84375 0.96875 "/>
</symbol>
<symbol overflow="visible" id="glyph1-1">
<path style="stroke:none;" d="M 3.6875 -5.015625 L 3.6875 -2.84375 L 5.859375 -2.84375 L 5.859375 -2.171875 L 3.6875 -2.171875 L 3.6875 0 L 3.03125 0 L 3.03125 -2.171875 L 0.84375 -2.171875 L 0.84375 -2.84375 L 3.03125 -2.84375 L 3.03125 -5.015625 Z M 3.6875 -5.015625 "/>
</symbol>
</g>
</defs>
<g id="surface16753">
<rect x="0" y="0" width="300" height="300" style="fill:rgb(100%,100%,100%);fill-opacity:1;stroke:none;"/>
<path style="fill:none;stroke-width:1.2;stroke-linecap:butt;stroke-linejoin:miter;stroke:rgb(100%,0%,0%);stroke-opacity:1;stroke-miterlimit:10;" d="M 160.5 169.722656 L 158.824219 161.097656 "/>
<path style="fill:none;stroke-width:1.2;stroke-linecap:butt;stroke-linejoin:miter;stroke:rgb(0%,0%,0%);stroke-opacity:1;stroke-miterlimit:10;" d="M 158.824219 161.097656 L 157.148438 152.46875 "/>
<path style="fill:none;stroke-width:1.2;stroke-linecap:butt;stroke-linejoin:miter;stroke:rgb(100%,0%,0%);stroke-opacity:1;stroke-miterlimit:10;" d="M 156.4375 170.511719 L 154.761719 161.882812 "/>
<path style="fill:none;stroke-width:1.2;stroke-linecap:butt;stroke-linejoin:miter;stroke:rgb(0%,0%,0%);stroke-opacity:1;stroke-miterlimit:10;" d="M 154.761719 161.882812 L 153.085938 153.257812 "/>
<path style=" stroke:none;fill-rule:nonzero;fill:rgb(100%,100%,100%);fill-opacity:1;" d="M 154.46875 164.617188 L 162.46875 164.617188 L 162.46875 175.617188 L 154.46875 175.617188 Z M 154.46875 164.617188 "/>
<g style="fill:rgb(100%,0%,0%);fill-opacity:1;">
  <use xlink:href="#glyph0-1" x="154.46875" y="173.280273"/>
</g>
<path style="fill:none;stroke-width:1.2;stroke-linecap:butt;stroke-linejoin:miter;stroke:rgb(0%,0%,0%);stroke-opacity:1;stroke-miterlimit:10;" d="M 155.117188 152.863281 L 146.808594 150 "/>
<path style="fill:none;stroke-width:1.2;stroke-linecap:butt;stroke-linejoin:miter;stroke:rgb(0%,0%,100%);stroke-opacity:1;stroke-miterlimit:10;" d="M 146.808594 150 L 138.5 147.136719 "/>
<path style="fill:none;stroke-width:1.2;stroke-linecap:butt;stroke-linejoin:miter;stroke:rgb(0%,0%,0%);stroke-opacity:1;stroke-miterlimit:10;" d="M 168.386719 141.332031 L 155.117188 152.863281 "/>
<path style="fill:none;stroke-width:1.2;stroke-linecap:butt;stroke-linejoin:miter;stroke:rgb(0%,0%,100%);stroke-opacity:1;stroke-miterlimit:10;" d="M 138.5 147.136719 L 136.824219 138.507812 "/>
<path style="fill:none;stroke-width:1.2;stroke-linecap:butt;stroke-linejoin:miter;stroke:rgb(0%,0%,0%);stroke-opacity:1;stroke-miterlimit:10;" d="M 136.824219 138.507812 L 135.148438 129.882812 "/>
<path style="fill:none;stroke-width:1.2;stroke-linecap:butt;stroke-linejoin:miter;stroke:rgb(0%,0%,100%);stroke-opacity:1;stroke-miterlimit:10;" d="M 138.5 147.136719 L 131.863281 152.902344 "/>
<path style="fill:none;stroke-width:1.2;stroke-linecap:butt;stroke-linejoin:miter;stroke:rgb(0%,0%,0%);stroke-opacity:1;stroke-miterlimit:10;" d="M 131.863281 152.902344 L 125.230469 158.667969 "/>
<path style=" stroke:none;fill-rule:nonzero;fill:rgb(100%,100%,100%);fill-opacity:1;" d="M 135.5 141.636719 L 142.5 141.636719 L 142.5 152.636719 L 135.5 152.636719 Z M 135.5 141.636719 "/>
<g style="fill:rgb(0%,0%,100%);fill-opacity:1;">
  <use xlink:href="#glyph0-2" x="135.5" y="150.299805"/>
</g>
<path style="fill:none;stroke-width:1.2;stroke-linecap:butt;stroke-linejoin:miter;stroke:rgb(0%,0%,0%);stroke-opacity:1;stroke-miterlimit:10;" d="M 135.148438 129.882812 L 141.78125 124.117188 "/>
<path style="fill:none;stroke-width:1.2;stroke-linecap:butt;stroke-linejoin:miter;stroke:rgb(0%,0%,100%);stroke-opacity:1;stroke-miterlimit:10;" d="M 141.78125 124.117188 L 148.414062 118.351562 "/>
<path style="fill:none;stroke-width:1.2;stroke-linecap:butt;stroke-linejoin:miter;stroke:rgb(0%,0%,0%);stroke-opacity:1;stroke-miterlimit:10;" d="M 139.1875 131.851562 L 144.492188 127.238281 "/>
<path style="fill:none;stroke-width:1.2;stroke-linecap:butt;stroke-linejoin:miter;stroke:rgb(0%,0%,100%);stroke-opacity:1;stroke-miterlimit:10;" d="M 144.492188 127.238281 L 149.800781 122.625 "/>
<path style="fill:none;stroke-width:1.2;stroke-linecap:butt;stroke-linejoin:miter;stroke:rgb(0%,0%,100%);stroke-opacity:1;stroke-miterlimit:10;" d="M 148.414062 118.351562 L 156.726562 121.214844 "/>
<path style="fill:none;stroke-width:1.2;stroke-linecap:butt;stroke-linejoin:miter;stroke:rgb(0%,0%,0%);stroke-opacity:1;stroke-miterlimit:10;" d="M 156.726562 121.214844 L 165.035156 124.078125 "/>
<path style=" stroke:none;fill-rule:nonzero;fill:rgb(100%,100%,100%);fill-opacity:1;" d="M 145.414062 112.851562 L 152.414062 112.851562 L 152.414062 123.851562 L 145.414062 123.851562 Z M 145.414062 112.851562 "/>
<g style="fill:rgb(0%,0%,100%);fill-opacity:1;">
  <use xlink:href="#glyph0-2" x="145.414062" y="121.514648"/>
</g>
<path style="fill:none;stroke-width:1.2;stroke-linecap:butt;stroke-linejoin:miter;stroke:rgb(0%,0%,0%);stroke-opacity:1;stroke-miterlimit:10;" d="M 165.035156 124.078125 L 168.386719 141.332031 "/>
<path style="fill:none;stroke-width:1.2;stroke-linecap:butt;stroke-linejoin:miter;stroke:rgb(0%,0%,0%);stroke-opacity:1;stroke-miterlimit:10;" d="M 169.429688 125.015625 L 172.109375 138.820312 "/>
<path style="fill:none;stroke-width:1.2;stroke-linecap:butt;stroke-linejoin:miter;stroke:rgb(0%,0%,0%);stroke-opacity:1;stroke-miterlimit:10;" d="M 178.300781 112.546875 L 165.035156 124.078125 "/>
<path style="fill:none;stroke-width:1.2;stroke-linecap:butt;stroke-linejoin:miter;stroke:rgb(0%,0%,0%);stroke-opacity:1;stroke-miterlimit:10;" d="M 168.386719 141.332031 L 185.003906 147.058594 "/>
<path style="fill:none;stroke-width:1.2;stroke-linecap:butt;stroke-linejoin:miter;stroke:rgb(0%,0%,0%);stroke-opacity:1;stroke-miterlimit:10;" d="M 185.003906 147.058594 L 198.273438 135.527344 "/>
<path style="fill:none;stroke-width:1.2;stroke-linecap:butt;stroke-linejoin:miter;stroke:rgb(0%,0%,0%);stroke-opacity:1;stroke-miterlimit:10;" d="M 183.617188 142.785156 L 194.234375 133.558594 "/>
<path style="fill:none;stroke-width:1.2;stroke-linecap:butt;stroke-linejoin:miter;stroke:rgb(0%,0%,0%);stroke-opacity:1;stroke-miterlimit:10;" d="M 198.273438 135.527344 L 206.582031 138.390625 "/>
<path style="fill:none;stroke-width:1.2;stroke-linecap:butt;stroke-linejoin:miter;stroke:rgb(0%,0%,100%);stroke-opacity:1;stroke-miterlimit:10;" d="M 206.582031 138.390625 L 214.890625 141.253906 "/>
<path style="fill:none;stroke-width:1.2;stroke-linecap:butt;stroke-linejoin:miter;stroke:rgb(0%,0%,0%);stroke-opacity:1;stroke-miterlimit:10;" d="M 198.273438 135.527344 L 194.921875 118.273438 "/>
<path style="fill:none;stroke-width:1.2;stroke-linecap:butt;stroke-linejoin:miter;stroke:rgb(0%,0%,100%);stroke-opacity:1;stroke-miterlimit:10;" d="M 214.890625 141.253906 L 216.566406 149.882812 "/>
<path style="fill:none;stroke-width:1.2;stroke-linecap:butt;stroke-linejoin:miter;stroke:rgb(0%,0%,0%);stroke-opacity:1;stroke-miterlimit:10;" d="M 216.566406 149.882812 L 218.242188 158.507812 "/>
<path style="fill:none;stroke-width:1.2;stroke-linecap:butt;stroke-linejoin:miter;stroke:rgb(0%,0%,0%);stroke-opacity:1;stroke-miterlimit:10;" d="M 228.160156 129.722656 L 221.527344 135.488281 "/>
<path style="fill:none;stroke-width:1.2;stroke-linecap:butt;stroke-linejoin:miter;stroke:rgb(0%,0%,100%);stroke-opacity:1;stroke-miterlimit:10;" d="M 221.527344 135.488281 L 214.890625 141.253906 "/>
<path style=" stroke:none;fill-rule:nonzero;fill:rgb(100%,100%,100%);fill-opacity:1;" d="M 211.890625 135.753906 L 218.890625 135.753906 L 218.890625 146.753906 L 211.890625 146.753906 Z M 211.890625 135.753906 "/>
<g style="fill:rgb(0%,0%,100%);fill-opacity:1;">
  <use xlink:href="#glyph0-2" x="211.890625" y="144.416992"/>
</g>
<path style="fill:none;stroke-width:1.2;stroke-linecap:butt;stroke-linejoin:miter;stroke:rgb(0%,0%,0%);stroke-opacity:1;stroke-miterlimit:10;" d="M 218.242188 158.507812 L 234.863281 164.234375 "/>
<path style="fill:none;stroke-width:1.2;stroke-linecap:butt;stroke-linejoin:miter;stroke:rgb(0%,0%,0%);stroke-opacity:1;stroke-miterlimit:10;" d="M 234.863281 164.234375 L 241.496094 158.46875 "/>
<path style="fill:none;stroke-width:1.2;stroke-linecap:butt;stroke-linejoin:miter;stroke:rgb(0%,0%,100%);stroke-opacity:1;stroke-miterlimit:10;" d="M 241.496094 158.46875 L 248.128906 152.703125 "/>
<path style="fill:none;stroke-width:1.2;stroke-linecap:butt;stroke-linejoin:miter;stroke:rgb(0%,0%,100%);stroke-opacity:1;stroke-miterlimit:10;" d="M 248.128906 152.703125 L 246.457031 144.078125 "/>
<path style="fill:none;stroke-width:1.2;stroke-linecap:butt;stroke-linejoin:miter;stroke:rgb(0%,0%,0%);stroke-opacity:1;stroke-miterlimit:10;" d="M 246.457031 144.078125 L 244.78125 135.449219 "/>
<path style="fill:none;stroke-width:1.2;stroke-linecap:butt;stroke-linejoin:miter;stroke:rgb(0%,0%,100%);stroke-opacity:1;stroke-miterlimit:10;" d="M 248.128906 152.703125 L 256.441406 155.566406 "/>
<path style="fill:none;stroke-width:1.2;stroke-linecap:butt;stroke-linejoin:miter;stroke:rgb(0%,0%,0%);stroke-opacity:1;stroke-miterlimit:10;" d="M 256.441406 155.566406 L 264.75 158.429688 "/>
<path style=" stroke:none;fill-rule:nonzero;fill:rgb(100%,100%,100%);fill-opacity:1;" d="M 238.128906 145.203125 L 259.128906 145.203125 L 259.128906 160.203125 L 238.128906 160.203125 Z M 238.128906 145.203125 "/>
<g style="fill:rgb(0%,0%,100%);fill-opacity:1;">
  <use xlink:href="#glyph0-2" x="238.128906" y="157.304688"/>
  <use xlink:href="#glyph0-3" x="245.106445" y="157.304688"/>
</g>
<g style="fill:rgb(0%,0%,100%);fill-opacity:1;">
  <use xlink:href="#glyph1-1" x="252.121094" y="152.421875"/>
</g>
<path style="fill:none;stroke-width:1.2;stroke-linecap:butt;stroke-linejoin:miter;stroke:rgb(0%,0%,0%);stroke-opacity:1;stroke-miterlimit:10;" d="M 244.78125 135.449219 L 228.160156 129.722656 "/>
<path style="fill:none;stroke-width:1.2;stroke-linecap:butt;stroke-linejoin:miter;stroke:rgb(0%,0%,0%);stroke-opacity:1;stroke-miterlimit:10;" d="M 194.921875 118.273438 L 178.300781 112.546875 "/>
<path style="fill:none;stroke-width:1.2;stroke-linecap:butt;stroke-linejoin:miter;stroke:rgb(0%,0%,0%);stroke-opacity:1;stroke-miterlimit:10;" d="M 191.914062 121.609375 L 178.617188 117.03125 "/>
<path style="fill:none;stroke-width:1.2;stroke-linecap:butt;stroke-linejoin:miter;stroke:rgb(0%,0%,0%);stroke-opacity:1;stroke-miterlimit:10;" d="M 125.230469 158.667969 L 108.609375 152.941406 "/>
<path style="fill:none;stroke-width:1.2;stroke-linecap:butt;stroke-linejoin:miter;stroke:rgb(0%,0%,0%);stroke-opacity:1;stroke-miterlimit:10;" d="M 122.222656 162.003906 L 108.925781 157.425781 "/>
<path style="fill:none;stroke-width:1.2;stroke-linecap:butt;stroke-linejoin:miter;stroke:rgb(0%,0%,0%);stroke-opacity:1;stroke-miterlimit:10;" d="M 128.582031 175.921875 L 125.230469 158.667969 "/>
<path style="fill:none;stroke-width:1.2;stroke-linecap:butt;stroke-linejoin:miter;stroke:rgb(0%,0%,0%);stroke-opacity:1;stroke-miterlimit:10;" d="M 108.609375 152.941406 L 95.34375 164.472656 "/>
<path style="fill:none;stroke-width:1.2;stroke-linecap:butt;stroke-linejoin:miter;stroke:rgb(0%,0%,0%);stroke-opacity:1;stroke-miterlimit:10;" d="M 95.34375 164.472656 L 87.035156 161.609375 "/>
<path style="fill:none;stroke-width:1.2;stroke-linecap:butt;stroke-linejoin:miter;stroke:rgb(0%,0%,100%);stroke-opacity:1;stroke-miterlimit:10;" d="M 87.035156 161.609375 L 78.722656 158.746094 "/>
<path style="fill:none;stroke-width:1.2;stroke-linecap:butt;stroke-linejoin:miter;stroke:rgb(0%,0%,0%);stroke-opacity:1;stroke-miterlimit:10;" d="M 95.34375 164.472656 L 98.695312 181.726562 "/>
<path style="fill:none;stroke-width:1.2;stroke-linecap:butt;stroke-linejoin:miter;stroke:rgb(0%,0%,0%);stroke-opacity:1;stroke-miterlimit:10;" d="M 99.738281 165.410156 L 102.417969 179.214844 "/>
<path style="fill:none;stroke-width:1.2;stroke-linecap:butt;stroke-linejoin:miter;stroke:rgb(0%,0%,100%);stroke-opacity:1;stroke-miterlimit:10;" d="M 78.722656 158.746094 L 77.046875 150.117188 "/>
<path style="fill:none;stroke-width:1.2;stroke-linecap:butt;stroke-linejoin:miter;stroke:rgb(0%,0%,0%);stroke-opacity:1;stroke-miterlimit:10;" d="M 77.046875 150.117188 L 75.371094 141.492188 "/>
<path style=" stroke:none;fill-rule:nonzero;fill:rgb(100%,100%,100%);fill-opacity:1;" d="M 71.722656 153.246094 L 85.722656 153.246094 L 85.722656 164.246094 L 71.722656 164.246094 Z M 71.722656 153.246094 "/>
<g style="fill:rgb(0%,0%,100%);fill-opacity:1;">
  <use xlink:href="#glyph0-2" x="71.722656" y="161.90918"/>
  <use xlink:href="#glyph0-3" x="78.700195" y="161.90918"/>
</g>
<path style="fill:none;stroke-width:1.2;stroke-linecap:butt;stroke-linejoin:miter;stroke:rgb(0%,0%,0%);stroke-opacity:1;stroke-miterlimit:10;" d="M 76.730469 143.050781 L 83.363281 137.285156 "/>
<path style="fill:none;stroke-width:1.2;stroke-linecap:butt;stroke-linejoin:miter;stroke:rgb(100%,0%,0%);stroke-opacity:1;stroke-miterlimit:10;" d="M 83.363281 137.285156 L 89.996094 131.523438 "/>
<path style="fill:none;stroke-width:1.2;stroke-linecap:butt;stroke-linejoin:miter;stroke:rgb(0%,0%,0%);stroke-opacity:1;stroke-miterlimit:10;" d="M 74.015625 139.929688 L 80.648438 134.164062 "/>
<path style="fill:none;stroke-width:1.2;stroke-linecap:butt;stroke-linejoin:miter;stroke:rgb(100%,0%,0%);stroke-opacity:1;stroke-miterlimit:10;" d="M 80.648438 134.164062 L 87.285156 128.398438 "/>
<path style="fill:none;stroke-width:1.2;stroke-linecap:butt;stroke-linejoin:miter;stroke:rgb(0%,0%,0%);stroke-opacity:1;stroke-miterlimit:10;" d="M 75.371094 141.492188 L 58.753906 135.765625 "/>
<path style=" stroke:none;fill-rule:nonzero;fill:rgb(100%,100%,100%);fill-opacity:1;" d="M 84.640625 124.460938 L 92.640625 124.460938 L 92.640625 135.460938 L 84.640625 135.460938 Z M 84.640625 124.460938 "/>
<g style="fill:rgb(100%,0%,0%);fill-opacity:1;">
  <use xlink:href="#glyph0-1" x="84.640625" y="133.124023"/>
</g>
<path style="fill:none;stroke-width:1.2;stroke-linecap:butt;stroke-linejoin:miter;stroke:rgb(0%,0%,0%);stroke-opacity:1;stroke-miterlimit:10;" d="M 58.753906 135.765625 L 51.050781 119.964844 "/>
<path style="fill:none;stroke-width:1.2;stroke-linecap:butt;stroke-linejoin:miter;stroke:rgb(0%,0%,0%);stroke-opacity:1;stroke-miterlimit:10;" d="M 42.953125 143.46875 L 58.753906 135.765625 "/>
<path style="fill:none;stroke-width:1.2;stroke-linecap:butt;stroke-linejoin:miter;stroke:rgb(0%,0%,0%);stroke-opacity:1;stroke-miterlimit:10;" d="M 51.050781 119.964844 L 35.25 127.667969 "/>
<path style="fill:none;stroke-width:1.2;stroke-linecap:butt;stroke-linejoin:miter;stroke:rgb(0%,0%,0%);stroke-opacity:1;stroke-miterlimit:10;" d="M 35.25 127.667969 L 42.953125 143.46875 "/>
<path style="fill:none;stroke-width:1.2;stroke-linecap:butt;stroke-linejoin:miter;stroke:rgb(0%,0%,0%);stroke-opacity:1;stroke-miterlimit:10;" d="M 98.695312 181.726562 L 115.3125 187.453125 "/>
<path style="fill:none;stroke-width:1.2;stroke-linecap:butt;stroke-linejoin:miter;stroke:rgb(0%,0%,0%);stroke-opacity:1;stroke-miterlimit:10;" d="M 115.3125 187.453125 L 128.582031 175.921875 "/>
<path style="fill:none;stroke-width:1.2;stroke-linecap:butt;stroke-linejoin:miter;stroke:rgb(0%,0%,0%);stroke-opacity:1;stroke-miterlimit:10;" d="M 113.925781 183.175781 L 124.542969 173.953125 "/>
<path style="fill:none;stroke-width:1.2;stroke-linecap:butt;stroke-linejoin:miter;stroke:rgb(0%,0%,0%);stroke-opacity:1;stroke-miterlimit:10;" d="M 128.582031 175.921875 L 145.199219 181.648438 "/>
</g>
</svg>

<svg xmlns="http://www.w3.org/2000/svg" xmlns:xlink="http://www.w3.org/1999/xlink" width="300pt" height="300pt" viewBox="0 0 300 300"><defs><symbol overflow="visible"><path d="M.453 1.594v-7.938h4.5v7.938zm.5-.5h3.5v-6.938h-3.5zm0 0"/></symbol><symbol overflow="visible" id="a"><path d="M3.547-5.953c-.65 0-1.164.242-1.547.72-.375.48-.563 1.13-.563 1.952 0 .835.188 1.49.563 1.967.383.48.898.72 1.547.72.644 0 1.156-.24 1.53-.72.376-.476.564-1.132.564-1.968 0-.822-.187-1.474-.562-1.954-.375-.477-.887-.72-1.53-.72zm0-.734c.914 0 1.648.312 2.203.937.55.617.828 1.438.828 2.47 0 1.042-.277 1.87-.828 2.483-.555.617-1.29.922-2.203.922-.93 0-1.668-.305-2.22-.922C.774-1.41.5-2.237.5-3.28c0-1.033.273-1.853.828-2.47.55-.625 1.29-.938 2.22-.938zm0 0"/></symbol><symbol overflow="visible" id="b"><path d="M.89-6.563H2.08l2.906 5.485v-5.484h.86V0H4.656L1.75-5.484V0H.89zm0 0"/></symbol><symbol overflow="visible" id="c"><path d="M.89-6.563h.876v2.688H5v-2.688h.89V0H5v-3.125H1.766V0H.89zm0 0"/></symbol><symbol overflow="visible"><path d="M.406 1.422V-5.64h4V1.42zM.844.97h3.11v-6.157H.843zm0 0"/></symbol><symbol overflow="visible" id="d"><path d="M3.688-5.016v2.172h2.17v.672H3.69V0H3.03v-2.172H.845v-.672H3.03v-2.172zm0 0"/></symbol></defs><g><path fill="#fff" d="M0 0h300v300H0z"/><path d="M160.5 169.723l-1.676-8.625" stroke-width="1.2" stroke="#f00" stroke-miterlimit="10" fill="none"/><path d="M158.824 161.098l-1.676-8.63" stroke-width="1.2" stroke="#000" stroke-miterlimit="10" fill="none"/><path d="M156.438 170.512l-1.676-8.63" stroke-width="1.2" stroke="#f00" stroke-miterlimit="10" fill="none"/><path d="M154.762 161.883l-1.676-8.625" stroke-width="1.2" stroke="#000" stroke-miterlimit="10" fill="none"/><path d="M154.47 164.617h8v11h-8zm0 0" fill="#fff"/><use xlink:href="#a" x="154.469" y="173.28" fill="#f00"/><path d="M155.117 152.863L146.81 150" stroke-width="1.2" stroke="#000" stroke-miterlimit="10" fill="none"/><path d="M146.81 150l-8.31-2.863" stroke-width="1.2" stroke="#00f" stroke-miterlimit="10" fill="none"/><path d="M168.387 141.332l-13.27 11.53" stroke-width="1.2" stroke="#000" stroke-miterlimit="10" fill="none"/><path d="M138.5 147.137l-1.676-8.63" stroke-width="1.2" stroke="#00f" stroke-miterlimit="10" fill="none"/><path d="M136.824 138.508l-1.676-8.625" stroke-width="1.2" stroke="#000" stroke-miterlimit="10" fill="none"/><path d="M138.5 147.137l-6.637 5.765" stroke-width="1.2" stroke="#00f" stroke-miterlimit="10" fill="none"/><path d="M131.863 152.902l-6.633 5.766" stroke-width="1.2" stroke="#000" stroke-miterlimit="10" fill="none"/><path d="M135.5 141.637h7v11h-7zm0 0" fill="#fff"/><use xlink:href="#b" x="135.5" y="150.3" fill="#00f"/><path d="M135.148 129.883l6.633-5.766" stroke-width="1.2" stroke="#000" stroke-miterlimit="10" fill="none"/><path d="M141.78 124.117l6.634-5.765" stroke-width="1.2" stroke="#00f" stroke-miterlimit="10" fill="none"/><path d="M139.188 131.852l5.304-4.614" stroke-width="1.2" stroke="#000" stroke-miterlimit="10" fill="none"/><path d="M144.492 127.238l5.31-4.613M148.414 118.352l8.313 2.863" stroke-width="1.2" stroke="#00f" stroke-miterlimit="10" fill="none"/><path d="M156.727 121.215l8.308 2.863" stroke-width="1.2" stroke="#000" stroke-miterlimit="10" fill="none"/><path d="M145.414 112.852h7v11h-7zm0 0" fill="#fff"/><use xlink:href="#b" x="145.414" y="121.515" fill="#00f"/><path d="M165.035 124.078l3.352 17.254M169.43 125.016l2.68 13.804M178.3 112.547l-13.265 11.53M168.387 141.332l16.617 5.727M185.004 147.06l13.27-11.533M183.617 142.785l10.617-9.226M198.273 135.527l8.31 2.864" stroke-width="1.2" stroke="#000" stroke-miterlimit="10" fill="none"/><path d="M206.582 138.39l8.31 2.864" stroke-width="1.2" stroke="#00f" stroke-miterlimit="10" fill="none"/><path d="M198.273 135.527l-3.35-17.254" stroke-width="1.2" stroke="#000" stroke-miterlimit="10" fill="none"/><path d="M214.89 141.254l1.676 8.63" stroke-width="1.2" stroke="#00f" stroke-miterlimit="10" fill="none"/><path d="M216.566 149.883l1.676 8.625M228.16 129.723l-6.633 5.765" stroke-width="1.2" stroke="#000" stroke-miterlimit="10" fill="none"/><path d="M221.527 135.488l-6.636 5.766" stroke-width="1.2" stroke="#00f" stroke-miterlimit="10" fill="none"/><path d="M211.89 135.754h7v11h-7zm0 0" fill="#fff"/><use xlink:href="#b" x="211.891" y="144.417" fill="#00f"/><path d="M218.242 158.508l16.62 5.726M234.863 164.234l6.633-5.765" stroke-width="1.2" stroke="#000" stroke-miterlimit="10" fill="none"/><path d="M241.496 158.47l6.633-5.767M248.13 152.703l-1.673-8.625" stroke-width="1.2" stroke="#00f" stroke-miterlimit="10" fill="none"/><path d="M246.457 144.078l-1.676-8.63" stroke-width="1.2" stroke="#000" stroke-miterlimit="10" fill="none"/><path d="M248.13 152.703l8.31 2.863" stroke-width="1.2" stroke="#00f" stroke-miterlimit="10" fill="none"/><path d="M256.44 155.566l8.31 2.864" stroke-width="1.2" stroke="#000" stroke-miterlimit="10" fill="none"/><path d="M238.13 145.203h21v15h-21zm0 0" fill="#fff"/><g fill="#00f"><use xlink:href="#b" x="238.129" y="157.305"/><use xlink:href="#c" x="245.106" y="157.305"/></g><use xlink:href="#d" x="252.121" y="152.422" fill="#00f"/><path d="M244.78 135.45l-16.62-5.727M194.922 118.273l-16.62-5.726M191.914 121.61l-13.297-4.58M125.23 158.668l-16.62-5.727M122.223 162.004l-13.297-4.578M128.582 175.922l-3.352-17.254M108.61 152.94l-13.266 11.533M95.344 164.473l-8.31-2.864" stroke-width="1.2" stroke="#000" stroke-miterlimit="10" fill="none"/><path d="M87.035 161.61l-8.312-2.864" stroke-width="1.2" stroke="#00f" stroke-miterlimit="10" fill="none"/><path d="M95.344 164.473l3.35 17.254M99.738 165.41l2.68 13.805" stroke-width="1.2" stroke="#000" stroke-miterlimit="10" fill="none"/><path d="M78.723 158.746l-1.676-8.63" stroke-width="1.2" stroke="#00f" stroke-miterlimit="10" fill="none"/><path d="M77.047 150.117l-1.676-8.625" stroke-width="1.2" stroke="#000" stroke-miterlimit="10" fill="none"/><path d="M71.723 153.246h14v11h-14zm0 0" fill="#fff"/><g fill="#00f"><use xlink:href="#b" x="71.723" y="161.909"/><use xlink:href="#c" x="78.7" y="161.909"/></g><path d="M76.73 143.05l6.633-5.765" stroke-width="1.2" stroke="#000" stroke-miterlimit="10" fill="none"/><path d="M83.363 137.285l6.633-5.762" stroke-width="1.2" stroke="#f00" stroke-miterlimit="10" fill="none"/><path d="M74.016 139.93l6.632-5.766" stroke-width="1.2" stroke="#000" stroke-miterlimit="10" fill="none"/><path d="M80.648 134.164l6.637-5.766" stroke-width="1.2" stroke="#f00" stroke-miterlimit="10" fill="none"/><path d="M75.37 141.492l-16.616-5.726" stroke-width="1.2" stroke="#000" stroke-miterlimit="10" fill="none"/><path d="M84.64 124.46h8v11h-8zm0 0" fill="#fff"/><use xlink:href="#a" x="84.641" y="133.124" fill="#f00"/><path d="M58.754 135.766l-7.703-15.8M42.953 143.47l15.8-7.704M51.05 119.965l-15.8 7.703M35.25 127.668l7.703 15.8M98.695 181.727l16.618 5.726M115.313 187.453l13.27-11.53M113.926 183.176l10.617-9.223M128.582 175.922l16.617 5.726" stroke-width="1.2" stroke="#000" stroke-miterlimit="10" fill="none"/></g></svg>
